;Generated by Cura LulzBot Edition GCodeWriter Version: 3.2.26
;FLAVOR:RepRap
;TIME:7401
;Filament used: 5.33521m
;Layer height: 0.39
;Generated with Cura_SteamEngine 3.2.26
T0
M82 ;absolute extrusion mode
;This G-Code has been generated specifically for the LulzBot Mini 2
M75 					; Start GLCD Print Timer
G26 					; clear potential 'probe fail' condition
G21 					; set units to Millimetres
M107 					; disable fans
G90 					; absolute positioning
M82 					; set extruder to absolute mode
G92 E0 					; set extruder position to 0
M140 S115 	; start bed heating up
G28                       ; Home Axis
G0 X160 F9999             ; Move toolhead to the right
G0 Z5 F6000               ; Move to bottom of printer
G91                       ; Set relative motion mode
M211 S0		  	  ; Turn off soft endstops
M400                      ; Finish moves
G0 Z-15 F500              ; Skip steppers against lower Z mounts
G90                       ; Return to absolute mode
M400                      ; Finish moves
M211 S1			  ; Turn soft endstops back on
M400                      ; Finish moves
G28                       ; Rehome
M117 X-Axis Leveled
G0 X0 Y187 Z156 F200 			; move away from endstops
M117 Mini 2 Wiping...			; progress indicator message on LCD
M109 R170 	; soften filament before retraction
G1 E-15 F75 				; retract filament
M109 R170 	; wait for extruder to reach wiping temp
G1 X45 Y176 F11520 			; move above wiper pad
G1 Z0 F1200 				; push nozzle into wiper
G1 X45 Y178 Z-.5 F4000		; wiping
G1 X55 Y176 Z-.5 F4000		; wiping
G1 X45 Y177 Z0 F4000		; wiping
G1 X55 Y176 F4000		; wiping
G1 X45 Y178 F4000		; wiping
G1 X55 Y176 F4000		; wiping
G1 X45 Y178 F4000		; wiping
G1 X55 Y176 F4000		; wiping
G1 X60 Y178 F4000		; wiping
G1 X80 Y176 F4000		; wiping
G1 X60 Y178 F4000		; wiping
G1 X80 Y176 F4000		; wiping
G1 X60 Y178 F4000		; wiping
G1 X90 Y176 F4000		; wiping
G1 X80 Y178 F4000		; wiping
G1 X100 Y176 F4000		; wiping
G1 X80 Y178 F4000		; wiping
G1 X100 Y176 F4000		; wiping
G1 X80 Y178 F4000		; wiping
G1 X100 Y176 F4000		; wiping
G1 X110 Y178 F4000		; wiping
G1 X100 Y176 F4000		; wiping
G1 X110 Y178 F4000		; wiping
G1 X100 Y176 F4000		; wiping
G1 X110 Y178 F4000		; wiping
G1 X115 Y176 Z-0.5 F1000	; wiping
G1 Z10					; raise extruder
G28 X0 Y0				; home X and Y
M109 R170	; wait for extruder to reach probe temp
M204 S300				; set probing acceleration
G29					; start auto-leveling sequence
M425 Z			     		; use measured Z backlash for compensation
M425 Z F0		     		; turn off measured Z backlash compensation. (if activated in the quality settings, this command will automatically be ignored)
M204 S2000				; restore standard acceleration
G1 X5 Y15 Z10 F5000			; move up off last probe point
G4 S1					; pause
M400					; wait for moves to finish
M117 Heating...				; progress indicator message on LCD
M109 R245	; wait for extruder to reach initial printing temp
M190 S116 ; wait for bed to reach printing temp
G1 Z2 E0 F75				; prime tiny bit of filment into the nozzle
M117 Mini 2 Printing...		; progress indicator message on LCD
M221 S100

M92 X100.6
M92 Y100.6

;Layer count: 94
;LAYER:0
M107
G0 F9000 X67.663 Y22.970 Z0.425
;TYPE:SKIRT
G1 F1200 X68.211 Y21.795 E0.05398
G1 X68.699 Y21.030 E0.09177
G1 X69.256 Y20.302 E0.12993
G1 X70.271 Y19.289 E0.18964
G1 X71.451 Y18.463 E0.24962
G1 X72.251 Y18.051 E0.28708
G1 X73.082 Y17.703 E0.32460
G1 X74.343 Y17.366 E0.37895
G1 X75.248 Y17.246 E0.41696
G1 X76.029 Y17.213 E0.44951
G1 X76.801 Y17.245 E0.48168
G1 X77.652 Y17.357 E0.51742
G1 X78.593 Y17.590 E0.55778
G1 X111.293 Y26.352 E1.96737
G1 X112.044 Y26.586 E2.00013
G1 X113.231 Y27.140 E2.05467
G1 X113.992 Y27.626 E2.09227
G1 X114.608 Y28.096 E2.12453
G1 X115.190 Y28.631 E2.15745
G1 X115.724 Y29.212 E2.19030
G1 X116.194 Y29.830 E2.22263
G1 X116.617 Y30.488 E2.25520
G1 X117.035 Y31.300 E2.29323
G1 X117.480 Y32.517 E2.34718
G1 X117.674 Y33.407 E2.38511
G1 X117.775 Y34.164 E2.41691
G1 X117.817 Y35.082 E2.45517
G1 X117.704 Y36.376 E2.50926
G1 X117.535 Y37.140 E2.54184
G1 X108.738 Y69.973 E3.95716
G1 X108.664 Y70.243 E3.96881
G1 X108.473 Y70.850 E3.99531
G1 X108.125 Y71.693 E4.03328
G1 X107.473 Y72.820 E4.08750
G1 X106.916 Y73.549 E4.12570
G1 X106.302 Y74.215 E4.16342
G1 X105.316 Y75.046 E4.21711
G1 X104.530 Y75.547 E4.25592
G1 X103.722 Y75.963 E4.29376
G1 X102.506 Y76.408 E4.34767
G1 X101.628 Y76.599 E4.38509
G1 X100.858 Y76.705 E4.41745
G1 X100.054 Y76.739 E4.45096
G1 X99.283 Y76.703 E4.48309
G1 X98.518 Y76.603 E4.51522
G1 X97.877 Y76.462 E4.54255
G1 X95.279 Y75.766 E4.65454
G1 X95.097 Y76.445 E4.68381
G1 X95.038 Y76.692 E4.69438
G1 X94.568 Y78.025 E4.75323
G1 X93.819 Y79.402 E4.81850
G1 X92.942 Y80.545 E4.87849
G1 X92.315 Y81.189 E4.91591
G1 X91.726 Y81.705 E4.94852
G1 X91.005 Y82.243 E4.98598
G1 X89.863 Y82.902 E5.04088
G1 X88.929 Y83.306 E5.08325
G1 X87.654 Y83.681 E5.13858
G1 X86.776 Y83.834 E5.17569
G1 X86.305 Y83.877 E5.19539
G1 X86.234 Y84.362 E5.21580
G1 X86.081 Y85.027 E5.24421
G1 X85.851 Y85.886 E5.28124
G1 X95.335 Y88.438 E5.69018
G1 X96.432 Y88.837 E5.73878
G1 X97.234 Y89.254 E5.77642
G1 X98.004 Y89.742 E5.81438
G1 X99.104 Y90.665 E5.87417
G1 X100.109 Y91.859 E5.93915
G1 X100.821 Y93.096 E5.99858
G1 X101.173 Y93.937 E6.03654
G1 X101.411 Y94.693 E6.06954
G1 X101.577 Y95.443 E6.10152
G1 X101.682 Y96.217 E6.13405
G1 X101.721 Y97.140 E6.17251
G1 X101.608 Y98.435 E6.22664
G1 X101.436 Y99.200 E6.25929
G1 X92.643 Y132.023 E7.67416
G1 X92.569 Y132.293 E7.68582
G1 X92.337 Y133.030 E7.71799
G1 X91.789 Y134.205 E7.77197
G1 X91.301 Y134.970 E7.80976
G1 X90.744 Y135.698 E7.84792
G1 X89.729 Y136.711 E7.90763
G1 X88.549 Y137.537 E7.96761
G1 X87.749 Y137.949 E8.00508
G1 X86.918 Y138.297 E8.04259
G1 X85.657 Y138.634 E8.09694
G1 X84.752 Y138.754 E8.13495
G1 X83.971 Y138.787 E8.16750
G1 X83.199 Y138.755 E8.19967
G1 X82.348 Y138.643 E8.23541
G1 X81.407 Y138.410 E8.27577
G1 X48.707 Y129.648 E9.68536
G1 X47.956 Y129.414 E9.71812
G1 X46.769 Y128.860 E9.77266
G1 X46.008 Y128.374 E9.81026
G1 X45.392 Y127.904 E9.84252
G1 X44.810 Y127.369 E9.87544
G1 X44.276 Y126.788 E9.90829
G1 X43.806 Y126.170 E9.94062
G1 X43.383 Y125.512 E9.97319
G1 X42.965 Y124.700 E10.01122
G1 X42.520 Y123.483 E10.06517
G1 X42.326 Y122.593 E10.10310
G1 X42.225 Y121.836 E10.13490
G1 X42.183 Y120.918 E10.17316
G1 X42.296 Y119.624 E10.22725
G1 X42.465 Y118.860 E10.25983
G1 X51.262 Y86.027 E11.67515
G1 X51.336 Y85.757 E11.68680
G1 X51.527 Y85.150 E11.71330
G1 X51.875 Y84.307 E11.75127
G1 X52.527 Y83.180 E11.80549
G1 X53.084 Y82.451 E11.84369
G1 X53.698 Y81.785 E11.88141
G1 X54.684 Y80.954 E11.93510
G1 X55.470 Y80.453 E11.97391
G1 X56.278 Y80.037 E12.01175
G1 X57.494 Y79.592 E12.06566
G1 X58.372 Y79.401 E12.10308
G1 X59.142 Y79.295 E12.13544
G1 X59.946 Y79.261 E12.16895
G1 X60.717 Y79.297 E12.20108
G1 X61.482 Y79.397 E12.23321
G1 X62.123 Y79.538 E12.26054
G1 X64.721 Y80.234 E12.37253
G1 X64.903 Y79.555 E12.40180
G1 X64.962 Y79.308 E12.41237
G1 X65.432 Y77.975 E12.47122
G1 X66.181 Y76.598 E12.53649
G1 X67.058 Y75.455 E12.59648
G1 X67.685 Y74.811 E12.63390
G1 X68.274 Y74.295 E12.66651
G1 X68.995 Y73.757 E12.70397
G1 X70.137 Y73.098 E12.75887
G1 X71.071 Y72.694 E12.80124
G1 X72.346 Y72.319 E12.85657
G1 X73.224 Y72.166 E12.89368
G1 X73.695 Y72.123 E12.91338
G1 X73.766 Y71.638 E12.93379
G1 X73.919 Y70.973 E12.96220
G1 X74.149 Y70.114 E12.99923
G1 X64.665 Y67.562 E13.40817
G1 X63.568 Y67.163 E13.45677
G1 X62.766 Y66.746 E13.49441
G1 X61.999 Y66.261 E13.53219
G1 X60.997 Y65.421 E13.58664
G1 X60.378 Y64.746 E13.62477
G1 X59.818 Y64.016 E13.66308
G1 X59.177 Y62.901 E13.71663
G1 X58.827 Y62.063 E13.75445
G1 X58.589 Y61.307 E13.78745
G1 X58.423 Y60.557 E13.81943
G1 X58.318 Y59.783 E13.85195
G1 X58.279 Y58.860 E13.89042
G1 X58.392 Y57.565 E13.94455
G1 X58.564 Y56.800 E13.97719
G1 X67.357 Y23.977 E15.39207
G1 X67.431 Y23.707 E15.40372
G1 X67.663 Y22.970 E15.43590
G0 F9000 X68.246 Y23.197
G1 F1200 X68.760 Y22.097 E15.48645
G1 X69.212 Y21.388 E15.52146
G1 X69.727 Y20.715 E15.55675
G1 X70.675 Y19.770 E15.61248
G1 X71.775 Y18.999 E15.66841
G1 X72.515 Y18.618 E15.70307
G1 X73.284 Y18.295 E15.73780
G1 X74.465 Y17.981 E15.78868
G1 X75.303 Y17.869 E15.82389
G1 X76.029 Y17.838 E15.85414
G1 X76.747 Y17.869 E15.88407
G1 X77.536 Y17.972 E15.91720
G1 X78.437 Y18.195 E15.95585
G1 X111.119 Y26.952 E17.36466
G1 X111.818 Y27.170 E17.39515
G1 X112.929 Y27.688 E17.44619
G1 X113.633 Y28.139 E17.48100
G1 X114.206 Y28.575 E17.51098
G1 X114.748 Y29.073 E17.54163
G1 X115.244 Y29.614 E17.57219
G1 X115.682 Y30.188 E17.60225
G1 X116.075 Y30.801 E17.63257
G1 X116.461 Y31.551 E17.66769
G1 X116.879 Y32.691 E17.71825
G1 X117.057 Y33.515 E17.75335
G1 X117.152 Y34.219 E17.78293
G1 X117.191 Y35.069 E17.81836
G1 X117.085 Y36.281 E17.86902
G1 X116.928 Y36.992 E17.89934
G1 X108.134 Y69.810 E19.31402
G1 X108.064 Y70.067 E19.32511
G1 X107.885 Y70.637 E19.34999
G1 X107.564 Y71.416 E19.38507
G1 X106.953 Y72.473 E19.43590
G1 X106.437 Y73.146 E19.47121
G1 X105.869 Y73.763 E19.50613
G1 X104.945 Y74.541 E19.55643
G1 X104.218 Y75.005 E19.59234
G1 X103.470 Y75.390 E19.62737
G1 X102.331 Y75.806 E19.67786
G1 X101.518 Y75.983 E19.71250
G1 X100.802 Y76.082 E19.74260
G1 X100.055 Y76.113 E19.77373
G1 X99.338 Y76.080 E19.80361
G1 X98.626 Y75.987 E19.83351
G1 X98.026 Y75.854 E19.85910
G1 X94.839 Y75.000 E19.99648
G1 X94.757 Y75.298 E20.00935
G1 X94.758 Y75.298 E20.00939
G1 X94.488 Y76.303 E20.05272
G1 X94.437 Y76.515 E20.06180
G1 X93.995 Y77.771 E20.11724
G1 X93.293 Y79.060 E20.17836
G1 X92.468 Y80.135 E20.23478
G1 X91.884 Y80.735 E20.26965
G1 X91.333 Y81.219 E20.30018
G1 X90.661 Y81.720 E20.33508
G1 X89.582 Y82.342 E20.38694
G1 X88.715 Y82.717 E20.42627
G1 X87.512 Y83.072 E20.47850
G1 X86.693 Y83.214 E20.51311
G1 X85.960 Y83.282 E20.54376
G1 X85.741 Y83.285 E20.55288
G1 X85.727 Y83.508 E20.56218
G1 X85.620 Y84.247 E20.59328
G1 X85.475 Y84.876 E20.62015
G1 X85.164 Y86.041 E20.67036
G1 X85.087 Y86.327 E20.68269
G1 X95.146 Y89.034 E21.11643
G1 X96.180 Y89.411 E21.16226
G1 X96.922 Y89.796 E21.19706
G1 X97.635 Y90.247 E21.23219
G1 X98.660 Y91.109 E21.28796
G1 X99.595 Y92.219 E21.34839
G1 X100.260 Y93.373 E21.40384
G1 X100.585 Y94.151 E21.43895
G1 X100.807 Y94.855 E21.46969
G1 X100.961 Y95.553 E21.49945
G1 X101.059 Y96.273 E21.52970
G1 X101.095 Y97.126 E21.56525
G1 X100.989 Y98.339 E21.61595
G1 X100.829 Y99.050 E21.64630
G1 X92.039 Y131.860 E23.06061
G1 X91.969 Y132.117 E23.07171
G1 X91.754 Y132.803 E23.10164
G1 X91.240 Y133.903 E23.15219
G1 X90.788 Y134.612 E23.18720
G1 X90.273 Y135.285 E23.22249
G1 X89.325 Y136.230 E23.27823
G1 X88.225 Y137.001 E23.33416
G1 X87.485 Y137.382 E23.36881
G1 X86.716 Y137.705 E23.40354
G1 X85.535 Y138.019 E23.45443
G1 X84.697 Y138.131 E23.48963
G1 X83.971 Y138.162 E23.51989
G1 X83.253 Y138.131 E23.54981
G1 X82.464 Y138.028 E23.58294
G1 X81.563 Y137.805 E23.62159
G1 X48.881 Y129.048 E25.03040
G1 X48.182 Y128.830 E25.06089
G1 X47.071 Y128.312 E25.11193
G1 X46.367 Y127.861 E25.14674
G1 X45.794 Y127.425 E25.17672
G1 X45.252 Y126.927 E25.20737
G1 X44.756 Y126.386 E25.23793
G1 X44.318 Y125.812 E25.26800
G1 X43.925 Y125.199 E25.29831
G1 X43.539 Y124.449 E25.33344
G1 X43.121 Y123.309 E25.38399
G1 X42.943 Y122.485 E25.41909
G1 X42.848 Y121.781 E25.44867
G1 X42.809 Y120.931 E25.48410
G1 X42.915 Y119.719 E25.53476
G1 X43.072 Y119.008 E25.56508
G1 X51.866 Y86.190 E26.97976
G1 X51.936 Y85.933 E26.99085
G1 X52.115 Y85.363 E27.01573
G1 X52.436 Y84.584 E27.05081
G1 X53.047 Y83.527 E27.10165
G1 X53.563 Y82.854 E27.13696
G1 X54.131 Y82.237 E27.17188
G1 X55.055 Y81.459 E27.22217
G1 X55.782 Y80.995 E27.25808
G1 X56.530 Y80.610 E27.29311
G1 X57.669 Y80.194 E27.34360
G1 X58.482 Y80.017 E27.37824
G1 X59.198 Y79.918 E27.40834
G1 X59.945 Y79.887 E27.43947
G1 X60.662 Y79.920 E27.46936
G1 X61.374 Y80.013 E27.49926
G1 X61.974 Y80.146 E27.52484
G1 X65.161 Y81.000 E27.66223
G1 X65.243 Y80.702 E27.67510
G1 X65.242 Y80.702 E27.67514
G1 X65.512 Y79.697 E27.71847
G1 X65.563 Y79.485 E27.72755
G1 X66.005 Y78.229 E27.78299
G1 X66.707 Y76.940 E27.84410
G1 X67.532 Y75.865 E27.90053
G1 X68.116 Y75.265 E27.93539
G1 X68.667 Y74.781 E27.96592
G1 X69.339 Y74.280 E28.00083
G1 X70.418 Y73.658 E28.05268
G1 X71.285 Y73.283 E28.09202
G1 X72.488 Y72.928 E28.14424
G1 X73.307 Y72.786 E28.17885
G1 X74.040 Y72.718 E28.20950
G1 X74.259 Y72.715 E28.21862
G1 X74.273 Y72.492 E28.22793
G1 X74.380 Y71.753 E28.25902
G1 X74.525 Y71.124 E28.28590
G1 X74.836 Y69.959 E28.33610
G1 X74.913 Y69.673 E28.34843
G1 X64.854 Y66.966 E28.78217
G1 X63.820 Y66.589 E28.82800
G1 X63.078 Y66.204 E28.86280
G1 X62.369 Y65.755 E28.89775
G1 X61.429 Y64.968 E28.94879
G1 X60.857 Y64.344 E28.98404
G1 X60.339 Y63.668 E29.01950
G1 X59.739 Y62.624 E29.06964
G1 X59.415 Y61.849 E29.10462
G1 X59.193 Y61.145 E29.13535
G1 X59.039 Y60.447 E29.16511
G1 X58.941 Y59.727 E29.19537
G1 X58.905 Y58.874 E29.23092
G1 X59.011 Y57.661 E29.28162
G1 X59.171 Y56.950 E29.31196
G1 X67.961 Y24.140 E30.72628
G1 X68.031 Y23.883 E30.73737
G1 X68.246 Y23.197 E30.76730
G1 F420 E28.76730
G1 Z0.625
G0 F9000 X73.336 Y28.798
;TYPE:WALL-INNER
G1 Z0.425
G1 F420 E30.76730
G1 F1200 X73.544 Y29.218 E30.78682
G1 X73.815 Y29.629 E30.80732
G1 X74.231 Y30.083 E30.83296
G1 X74.518 Y30.321 E30.84848
G1 X75.152 Y30.705 E30.87935
G1 X75.800 Y30.942 E30.90807
G1 X76.392 Y31.048 E30.93312
G1 X76.754 Y31.063 E30.94820
G1 X77.382 Y31.009 E30.97445
G1 X78.137 Y30.789 E31.00719
G1 X78.692 Y30.498 E31.03328
G1 X78.991 Y30.293 E31.04838
G1 X79.438 Y29.883 E31.07363
G1 X79.676 Y29.596 E31.08916
G1 X80.071 Y28.945 E31.12087
G1 X80.293 Y28.333 E31.14797
G1 X80.403 Y27.723 E31.17378
G1 X80.418 Y27.359 E31.18895
G1 X80.364 Y26.750 E31.21441
G1 X80.249 Y26.283 E31.23443
G1 X80.131 Y25.953 E31.24903
G1 X79.854 Y25.418 E31.27411
G1 X79.645 Y25.120 E31.28927
G1 X79.484 Y24.945 E31.29917
G1 X106.468 Y32.175 E32.46236
G1 X106.217 Y32.265 E32.47346
G1 X105.682 Y32.542 E32.49854
G1 X105.384 Y32.751 E32.51370
G1 X104.942 Y33.158 E32.53872
G1 X104.715 Y33.427 E32.55337
G1 X104.447 Y33.830 E32.57353
G1 X104.189 Y34.384 E32.59897
G1 X104.080 Y34.727 E32.61396
G1 X103.974 Y35.318 E32.63896
G1 X103.959 Y35.682 E32.65413
G1 X104.013 Y36.291 E32.67958
G1 X104.131 Y36.770 E32.70013
G1 X104.312 Y37.234 E32.72086
G1 X104.710 Y37.897 E32.75306
G1 X105.161 Y38.388 E32.78082
G1 X105.793 Y38.849 E32.81339
G1 X106.364 Y39.115 E32.83962
G1 X106.708 Y39.223 E32.85463
G1 X107.301 Y39.331 E32.87973
G1 X107.665 Y39.345 E32.89490
G1 X108.281 Y39.291 E32.92065
G1 X108.892 Y39.128 E32.94698
G1 X109.333 Y38.934 E32.96704
G1 X109.648 Y38.753 E32.98216
G1 X110.080 Y38.404 E33.00529
G1 X102.847 Y65.397 E34.16887
G1 X102.700 Y65.019 E34.18576
G1 X102.460 Y64.574 E34.20681
G1 X101.995 Y64.001 E34.23754
G1 X101.825 Y63.832 E34.24752
G1 X101.211 Y63.385 E34.27914
G1 X100.640 Y63.117 E34.30541
G1 X100.295 Y63.008 E34.32047
G1 X99.702 Y62.902 E34.34555
G1 X99.339 Y62.888 E34.36068
G1 X98.723 Y62.942 E34.38643
G1 X98.113 Y63.105 E34.41272
G1 X97.651 Y63.308 E34.43373
G1 X97.118 Y63.647 E34.46003
G1 X96.636 Y64.088 E34.48723
G1 X96.174 Y64.721 E34.51986
G1 X95.907 Y65.292 E34.54611
G1 X95.798 Y65.637 E34.56117
G1 X95.692 Y66.229 E34.58622
G1 X95.677 Y66.592 E34.60134
G1 X95.731 Y67.200 E34.62676
G1 X95.846 Y67.667 E34.64678
G1 X95.965 Y67.998 E34.66143
G1 X96.242 Y68.530 E34.68640
G1 X96.444 Y68.822 E34.70119
G1 X96.606 Y69.004 E34.71133
G1 X95.396 Y68.730 E34.76299
G1 X94.617 Y68.679 E34.79550
G1 X93.857 Y68.727 E34.82720
G1 X93.440 Y68.799 E34.84482
G1 X92.710 Y68.992 E34.87626
G1 X91.985 Y69.293 E34.90895
G1 X91.314 Y69.682 E34.94125
G1 X90.700 Y70.153 E34.97347
G1 X90.152 Y70.701 E35.00574
G1 X89.681 Y71.315 E35.03796
G1 X89.302 Y71.969 E35.06943
G1 X89.159 Y72.283 E35.08380
G1 X89.169 Y72.001 E35.09555
G1 X89.130 Y71.525 E35.11543
G1 X88.969 Y70.921 E35.14146
G1 X88.688 Y70.352 E35.16788
G1 X88.298 Y69.852 E35.19429
G1 X87.818 Y69.439 E35.22065
G1 X87.277 Y69.135 E35.24649
G1 X86.804 Y68.968 E35.26738
G1 X86.211 Y68.869 E35.29241
G1 X85.855 Y68.866 E35.30723
G1 X85.423 Y68.917 E35.32535
G1 X85.215 Y68.958 E35.33417
G1 X84.644 Y69.159 E35.35938
G1 X84.111 Y69.474 E35.38516
G1 X83.749 Y69.784 E35.40500
