(Exported by FreeCAD)
(Post Processor: linuxcnc_post)
(Output Time:2018-04-20 09:06:29.284015)
(begin preamble)
G17 G54 G40 G49 G80 G90
G21
(begin operation: T8: 635 end mill)
(machine: not set, mm/min)
(T8: 635 end mill)
M6 T8 G43 H6
M8
M3 S3000
(finish operation: T8: 635 end mill)
(begin operation: Helix)
(machine: not set, mm/min)
(Helix)
(helix cut operation)
G0 Z5.000
G0 X20.825 Y-7.630
G0 Z3.000
G1 Z0.000 F90.000
G2 X19.175 Y-7.630 Z-0.500 I-0.825 J0.000 F90.000
G2 X20.825 Y-7.630 Z-1.000 I0.825 J0.000 F90.000
G2 X19.175 Y-7.630 Z-1.500 I-0.825 J0.000 F90.000
G2 X20.825 Y-7.630 Z-2.000 I0.825 J0.000 F90.000
G2 X19.175 Y-7.630 Z-2.500 I-0.825 J0.000 F90.000
G2 X20.825 Y-7.630 Z-3.000 I0.825 J0.000 F90.000
G2 X19.175 Y-7.630 Z-3.500 I-0.825 J0.000 F90.000
G2 X20.825 Y-7.630 Z-4.000 I0.825 J0.000 F90.000
G2 X19.175 Y-7.630 Z-4.500 I-0.825 J0.000 F90.000
G2 X20.825 Y-7.630 Z-5.000 I0.825 J0.000 F90.000
G2 X19.175 Y-7.630 Z-5.500 I-0.825 J0.000 F90.000
G2 X20.825 Y-7.630 Z-6.000 I0.825 J0.000 F90.000
G2 X19.175 Y-7.630 Z-6.500 I-0.825 J0.000 F90.000
G2 X20.825 Y-7.630 Z-7.000 I0.825 J0.000 F90.000
G2 X19.175 Y-7.630 Z-7.500 I-0.825 J0.000 F90.000
G2 X20.825 Y-7.630 Z-8.000 I0.825 J0.000 F90.000
G2 X19.175 Y-7.630 Z-8.500 I-0.825 J0.000 F90.000
G2 X20.825 Y-7.630 Z-9.000 I0.825 J0.000 F90.000
G2 X19.175 Y-7.630 Z-9.500 I-0.825 J0.000 F90.000
G2 X20.825 Y-7.630 Z-10.000 I0.825 J0.000 F90.000
G2 X19.175 Y-7.630 Z-10.000 I-0.825 J0.000 F90.000
G2 X20.825 Y-7.630 Z-10.000 I0.825 J0.000 F90.000
G0 Z3.000
G0 Z5.000
(finish operation: Helix)
(begin operation: Helix001)
(machine: not set, mm/min)
(Helix001)
(helix cut operation)
G0 Z5.000
G0 X9.325 Y-10.000
G0 Z3.000
G1 Z0.000 F90.000
G2 X5.675 Y-10.000 Z-0.500 I-1.825 J0.000 F90.000
G2 X9.325 Y-10.000 Z-1.000 I1.825 J0.000 F90.000
G2 X5.675 Y-10.000 Z-1.500 I-1.825 J0.000 F90.000
G2 X9.325 Y-10.000 Z-2.000 I1.825 J0.000 F90.000
G2 X5.675 Y-10.000 Z-2.500 I-1.825 J0.000 F90.000
G2 X9.325 Y-10.000 Z-3.000 I1.825 J0.000 F90.000
G2 X5.675 Y-10.000 Z-3.500 I-1.825 J0.000 F90.000
G2 X9.325 Y-10.000 Z-4.000 I1.825 J0.000 F90.000
G2 X5.675 Y-10.000 Z-4.500 I-1.825 J0.000 F90.000
G2 X9.325 Y-10.000 Z-5.000 I1.825 J0.000 F90.000
G2 X5.675 Y-10.000 Z-5.500 I-1.825 J0.000 F90.000
G2 X9.325 Y-10.000 Z-6.000 I1.825 J0.000 F90.000
G2 X5.675 Y-10.000 Z-6.500 I-1.825 J0.000 F90.000
G2 X9.325 Y-10.000 Z-7.000 I1.825 J0.000 F90.000
G2 X5.675 Y-10.000 Z-7.500 I-1.825 J0.000 F90.000
G2 X9.325 Y-10.000 Z-8.000 I1.825 J0.000 F90.000
G2 X5.675 Y-10.000 Z-8.500 I-1.825 J0.000 F90.000
G2 X9.325 Y-10.000 Z-9.000 I1.825 J0.000 F90.000
G2 X5.675 Y-10.000 Z-9.500 I-1.825 J0.000 F90.000
G2 X9.325 Y-10.000 Z-10.000 I1.825 J0.000 F90.000
G2 X5.675 Y-10.000 Z-10.500 I-1.825 J0.000 F90.000
G2 X9.325 Y-10.000 Z-11.000 I1.825 J0.000 F90.000
G2 X5.675 Y-10.000 Z-11.000 I-1.825 J0.000 F90.000
G2 X9.325 Y-10.000 Z-11.000 I1.825 J0.000 F90.000
G0 Z3.000
G0 X34.325 Y-10.000
G0 Z3.000
G1 Z0.000 F90.000
G2 X30.675 Y-10.000 Z-0.500 I-1.825 J0.000 F90.000
G2 X34.325 Y-10.000 Z-1.000 I1.825 J0.000 F90.000
G2 X30.675 Y-10.000 Z-1.500 I-1.825 J0.000 F90.000
G2 X34.325 Y-10.000 Z-2.000 I1.825 J0.000 F90.000
G2 X30.675 Y-10.000 Z-2.500 I-1.825 J0.000 F90.000
G2 X34.325 Y-10.000 Z-3.000 I1.825 J0.000 F90.000
G2 X30.675 Y-10.000 Z-3.500 I-1.825 J0.000 F90.000
G2 X34.325 Y-10.000 Z-4.000 I1.825 J0.000 F90.000
G2 X30.675 Y-10.000 Z-4.500 I-1.825 J0.000 F90.000
G2 X34.325 Y-10.000 Z-5.000 I1.825 J0.000 F90.000
G2 X30.675 Y-10.000 Z-5.500 I-1.825 J0.000 F90.000
G2 X34.325 Y-10.000 Z-6.000 I1.825 J0.000 F90.000
G2 X30.675 Y-10.000 Z-6.500 I-1.825 J0.000 F90.000
G2 X34.325 Y-10.000 Z-7.000 I1.825 J0.000 F90.000
G2 X30.675 Y-10.000 Z-7.500 I-1.825 J0.000 F90.000
G2 X34.325 Y-10.000 Z-8.000 I1.825 J0.000 F90.000
G2 X30.675 Y-10.000 Z-8.500 I-1.825 J0.000 F90.000
G2 X34.325 Y-10.000 Z-9.000 I1.825 J0.000 F90.000
G2 X30.675 Y-10.000 Z-9.500 I-1.825 J0.000 F90.000
G2 X34.325 Y-10.000 Z-10.000 I1.825 J0.000 F90.000
G2 X30.675 Y-10.000 Z-10.500 I-1.825 J0.000 F90.000
G2 X34.325 Y-10.000 Z-11.000 I1.825 J0.000 F90.000
G2 X30.675 Y-10.000 Z-11.000 I-1.825 J0.000 F90.000
G2 X34.325 Y-10.000 Z-11.000 I1.825 J0.000 F90.000
G0 Z3.000
G0 Z5.000
(finish operation: Helix001)
(begin operation: Helix002)
(machine: not set, mm/min)
(Helix002)
(helix cut operation)
G0 Z5.000
G0 X32.525 Y-10.000
G0 Z3.000
G1 Z0.000 F90.000
G2 X32.475 Y-10.000 Z-0.484 I-0.025 J0.000 F90.000
G2 X32.525 Y-10.000 Z-0.969 I0.025 J0.000 F90.000
G2 X32.475 Y-10.000 Z-1.453 I-0.025 J0.000 F90.000
G2 X32.525 Y-10.000 Z-1.938 I0.025 J0.000 F90.000
G2 X32.475 Y-10.000 Z-2.422 I-0.025 J0.000 F90.000
G2 X32.525 Y-10.000 Z-2.906 I0.025 J0.000 F90.000
G2 X32.475 Y-10.000 Z-3.391 I-0.025 J0.000 F90.000
G2 X32.525 Y-10.000 Z-3.875 I0.025 J0.000 F90.000
G2 X32.475 Y-10.000 Z-4.359 I-0.025 J0.000 F90.000
G2 X32.525 Y-10.000 Z-4.844 I0.025 J0.000 F90.000
G2 X32.475 Y-10.000 Z-5.328 I-0.025 J0.000 F90.000
G2 X32.525 Y-10.000 Z-5.812 I0.025 J0.000 F90.000
G2 X32.475 Y-10.000 Z-6.297 I-0.025 J0.000 F90.000
G2 X32.525 Y-10.000 Z-6.781 I0.025 J0.000 F90.000
G2 X32.475 Y-10.000 Z-7.266 I-0.025 J0.000 F90.000
G2 X32.525 Y-10.000 Z-7.750 I0.025 J0.000 F90.000
G2 X32.475 Y-10.000 Z-8.234 I-0.025 J0.000 F90.000
G2 X32.525 Y-10.000 Z-8.719 I0.025 J0.000 F90.000
G2 X32.475 Y-10.000 Z-9.203 I-0.025 J0.000 F90.000
G2 X32.525 Y-10.000 Z-9.688 I0.025 J0.000 F90.000
G2 X32.475 Y-10.000 Z-10.172 I-0.025 J0.000 F90.000
G2 X32.525 Y-10.000 Z-10.656 I0.025 J0.000 F90.000
G2 X32.475 Y-10.000 Z-11.141 I-0.025 J0.000 F90.000
G2 X32.525 Y-10.000 Z-11.625 I0.025 J0.000 F90.000
G2 X32.475 Y-10.000 Z-12.109 I-0.025 J0.000 F90.000
G2 X32.525 Y-10.000 Z-12.594 I0.025 J0.000 F90.000
G2 X32.475 Y-10.000 Z-13.078 I-0.025 J0.000 F90.000
G2 X32.525 Y-10.000 Z-13.562 I0.025 J0.000 F90.000
G2 X32.475 Y-10.000 Z-14.047 I-0.025 J0.000 F90.000
G2 X32.525 Y-10.000 Z-14.531 I0.025 J0.000 F90.000
G2 X32.475 Y-10.000 Z-15.016 I-0.025 J0.000 F90.000
G2 X32.525 Y-10.000 Z-15.500 I0.025 J0.000 F90.000
G2 X32.475 Y-10.000 Z-15.500 I-0.025 J0.000 F90.000
G2 X32.525 Y-10.000 Z-15.500 I0.025 J0.000 F90.000
G0 Z3.000
G0 X7.525 Y-10.000
G0 Z3.000
G1 Z0.000 F90.000
G2 X7.475 Y-10.000 Z-0.484 I-0.025 J0.000 F90.000
G2 X7.525 Y-10.000 Z-0.969 I0.025 J0.000 F90.000
G2 X7.475 Y-10.000 Z-1.453 I-0.025 J0.000 F90.000
G2 X7.525 Y-10.000 Z-1.938 I0.025 J0.000 F90.000
G2 X7.475 Y-10.000 Z-2.422 I-0.025 J0.000 F90.000
G2 X7.525 Y-10.000 Z-2.906 I0.025 J0.000 F90.000
G2 X7.475 Y-10.000 Z-3.391 I-0.025 J0.000 F90.000
G2 X7.525 Y-10.000 Z-3.875 I0.025 J0.000 F90.000
G2 X7.475 Y-10.000 Z-4.359 I-0.025 J0.000 F90.000
G2 X7.525 Y-10.000 Z-4.844 I0.025 J0.000 F90.000
G2 X7.475 Y-10.000 Z-5.328 I-0.025 J0.000 F90.000
G2 X7.525 Y-10.000 Z-5.812 I0.025 J0.000 F90.000
G2 X7.475 Y-10.000 Z-6.297 I-0.025 J0.000 F90.000
G2 X7.525 Y-10.000 Z-6.781 I0.025 J0.000 F90.000
G2 X7.475 Y-10.000 Z-7.266 I-0.025 J0.000 F90.000
G2 X7.525 Y-10.000 Z-7.750 I0.025 J0.000 F90.000
G2 X7.475 Y-10.000 Z-8.234 I-0.025 J0.000 F90.000
G2 X7.525 Y-10.000 Z-8.719 I0.025 J0.000 F90.000
G2 X7.475 Y-10.000 Z-9.203 I-0.025 J0.000 F90.000
G2 X7.525 Y-10.000 Z-9.688 I0.025 J0.000 F90.000
G2 X7.475 Y-10.000 Z-10.172 I-0.025 J0.000 F90.000
G2 X7.525 Y-10.000 Z-10.656 I0.025 J0.000 F90.000
G2 X7.475 Y-10.000 Z-11.141 I-0.025 J0.000 F90.000
G2 X7.525 Y-10.000 Z-11.625 I0.025 J0.000 F90.000
G2 X7.475 Y-10.000 Z-12.109 I-0.025 J0.000 F90.000
G2 X7.525 Y-10.000 Z-12.594 I0.025 J0.000 F90.000
G2 X7.475 Y-10.000 Z-13.078 I-0.025 J0.000 F90.000
G2 X7.525 Y-10.000 Z-13.562 I0.025 J0.000 F90.000
G2 X7.475 Y-10.000 Z-14.047 I-0.025 J0.000 F90.000
G2 X7.525 Y-10.000 Z-14.531 I0.025 J0.000 F90.000
G2 X7.475 Y-10.000 Z-15.016 I-0.025 J0.000 F90.000
G2 X7.525 Y-10.000 Z-15.500 I0.025 J0.000 F90.000
G2 X7.475 Y-10.000 Z-15.500 I-0.025 J0.000 F90.000
G2 X7.525 Y-10.000 Z-15.500 I0.025 J0.000 F90.000
G0 Z3.000
G0 Z5.000
(finish operation: Helix002)
(begin operation: T7: 3.18 end mill)
(machine: not set, mm/min)
(T7: 3.18 end mill)
M9
M6 T7 G43 H1
M8
M3 S3000
(finish operation: T7: 3.18 end mill)
(begin operation: Helix003)
(machine: not set, mm/min)
(Helix003)
(helix cut operation)
G0 Z5.000
G0 X20.410 Y-7.630
G0 Z3.000
G1 Z-8.000 F30.000
G2 X19.590 Y-7.630 Z-8.250 I-0.410 J0.000 F30.000
G2 X20.410 Y-7.630 Z-8.500 I0.410 J0.000 F30.000
G2 X19.590 Y-7.630 Z-8.750 I-0.410 J0.000 F30.000
G2 X20.410 Y-7.630 Z-9.000 I0.410 J0.000 F30.000
G2 X19.590 Y-7.630 Z-9.250 I-0.410 J0.000 F30.000
G2 X20.410 Y-7.630 Z-9.500 I0.410 J0.000 F30.000
G2 X19.590 Y-7.630 Z-9.750 I-0.410 J0.000 F30.000
G2 X20.410 Y-7.630 Z-10.000 I0.410 J0.000 F30.000
G2 X19.590 Y-7.630 Z-10.250 I-0.410 J0.000 F30.000
G2 X20.410 Y-7.630 Z-10.500 I0.410 J0.000 F30.000
G2 X19.590 Y-7.630 Z-10.750 I-0.410 J0.000 F30.000
G2 X20.410 Y-7.630 Z-11.000 I0.410 J0.000 F30.000
G2 X19.590 Y-7.630 Z-11.250 I-0.410 J0.000 F30.000
G2 X20.410 Y-7.630 Z-11.500 I0.410 J0.000 F30.000
G2 X19.590 Y-7.630 Z-11.500 I-0.410 J0.000 F30.000
G2 X20.410 Y-7.630 Z-11.500 I0.410 J0.000 F30.000
G0 Z3.000
G0 Z5.000
(finish operation: Helix003)
(begin postamble)
M9
M05
G17 G54 G90 G80 G40
M2
